X:1
T:Tiftie's Annie
M:3/4
L:1/8
K:Bb
 D2| B3/2 A/2 G2 D2| B3/2 A/2 G2 FG| B3/2 c/2 d2 G2| B2 c2 FF| B3/2 c/2 d2 c2|\
 B3/2 A/2 G2 B3/2 A/2|G-F D2 CD| F2 G2||
